images/icons/button_search_hotel.svg

<svg width="376" height="52" viewBox="0 0 376 52" fill="none" xmlns="http://www.w3.org/2000/svg">
<rect width="376" height="52" rx="4" fill="#756157"/>
<path d="M59.2521 21.44H54.3521V33H51.6121V19H61.9921V33H59.2521V21.44ZM63.9455 26C63.9455 23.6667 64.4589 21.8733 65.4855 20.62C66.5122 19.3533 67.9789 18.72 69.8855 18.72C70.8855 18.72 71.7589 18.8933 72.5055 19.24C73.2522 19.5867 73.8722 20.08 74.3655 20.72C74.8589 21.36 75.2255 22.1267 75.4655 23.02C75.7055 23.9133 75.8255 24.9067 75.8255 26C75.8255 28.3333 75.3055 30.1333 74.2655 31.4C73.2389 32.6533 71.7789 33.28 69.8855 33.28C68.8722 33.28 67.9922 33.1067 67.2455 32.76C66.4989 32.4133 65.8789 31.92 65.3855 31.28C64.9055 30.64 64.5455 29.8733 64.3055 28.98C64.0655 28.0867 63.9455 27.0933 63.9455 26ZM66.8255 26C66.8255 26.7067 66.8855 27.36 67.0055 27.96C67.1255 28.5467 67.3055 29.0533 67.5455 29.48C67.7989 29.9067 68.1189 30.24 68.5055 30.48C68.8922 30.72 69.3522 30.84 69.8855 30.84C70.8589 30.84 71.6122 30.46 72.1455 29.7C72.6789 28.94 72.9455 27.7067 72.9455 26C72.9455 25.32 72.8855 24.6867 72.7655 24.1C72.6589 23.5133 72.4855 23 72.2455 22.56C72.0055 22.12 71.6922 21.78 71.3055 21.54C70.9189 21.2867 70.4455 21.16 69.8855 21.16C68.9122 21.16 68.1589 21.5533 67.6255 22.34C67.0922 23.1133 66.8255 24.3333 66.8255 26ZM85.944 25.24L86.104 23.42H86.004L85.064 25.3L79.844 33H77.784V19H80.524V26.62L80.324 28.5H80.444L81.424 26.56L86.644 19H88.684V33H85.944V25.24ZM100.584 32.42C100.158 32.7267 99.611 32.9467 98.9443 33.08C98.291 33.2133 97.6176 33.28 96.9243 33.28C96.0843 33.28 95.2843 33.1533 94.5243 32.9C93.7776 32.6333 93.1176 32.2133 92.5443 31.64C91.971 31.0533 91.511 30.3 91.1643 29.38C90.831 28.4467 90.6643 27.32 90.6643 26C90.6643 24.6267 90.851 23.48 91.2243 22.56C91.611 21.6267 92.1043 20.88 92.7043 20.32C93.3176 19.7467 93.9976 19.34 94.7443 19.1C95.491 18.8467 96.2376 18.72 96.9843 18.72C97.7843 18.72 98.4576 18.7733 99.0043 18.88C99.5643 18.9867 100.024 19.1133 100.384 19.26L99.8443 21.58C99.5376 21.4333 99.171 21.3267 98.7443 21.26C98.331 21.1933 97.8243 21.16 97.2243 21.16C96.1176 21.16 95.2243 21.5533 94.5443 22.34C93.8776 23.1267 93.5443 24.3467 93.5443 26C93.5443 26.72 93.6243 27.38 93.7843 27.98C93.9443 28.5667 94.1843 29.0733 94.5043 29.5C94.8376 29.9133 95.2443 30.24 95.7243 30.48C96.2176 30.7067 96.7843 30.82 97.4243 30.82C98.0243 30.82 98.531 30.76 98.9443 30.64C99.3576 30.52 99.7176 30.3667 100.024 30.18L100.584 32.42ZM105.736 27.02H105.016V33H102.276V19H105.016V25.2L105.656 24.92L109.516 19H112.636L108.556 24.88L107.476 25.64L108.596 26.42L113.256 33H109.876L105.736 27.02ZM127.545 21.44H122.145V33H119.405V19H127.545V21.44ZM127.696 26C127.696 23.6667 128.209 21.8733 129.236 20.62C130.262 19.3533 131.729 18.72 133.636 18.72C134.636 18.72 135.509 18.8933 136.256 19.24C137.002 19.5867 137.622 20.08 138.116 20.72C138.609 21.36 138.976 22.1267 139.216 23.02C139.456 23.9133 139.576 24.9067 139.576 26C139.576 28.3333 139.056 30.1333 138.016 31.4C136.989 32.6533 135.529 33.28 133.636 33.28C132.622 33.28 131.742 33.1067 130.996 32.76C130.249 32.4133 129.629 31.92 129.136 31.28C128.656 30.64 128.296 29.8733 128.056 28.98C127.816 28.0867 127.696 27.0933 127.696 26ZM130.576 26C130.576 26.7067 130.636 27.36 130.756 27.96C130.876 28.5467 131.056 29.0533 131.296 29.48C131.549 29.9067 131.869 30.24 132.256 30.48C132.642 30.72 133.102 30.84 133.636 30.84C134.609 30.84 135.362 30.46 135.896 29.7C136.429 28.94 136.696 27.7067 136.696 26C136.696 25.32 136.636 24.6867 136.516 24.1C136.409 23.5133 136.236 23 135.996 22.56C135.756 22.12 135.442 21.78 135.056 21.54C134.669 21.2867 134.196 21.16 133.636 21.16C132.662 21.16 131.909 21.5533 131.376 22.34C130.842 23.1133 130.576 24.3333 130.576 26ZM151.014 32.42C150.587 32.7267 150.041 32.9467 149.374 33.08C148.721 33.2133 148.047 33.28 147.354 33.28C146.514 33.28 145.714 33.1533 144.954 32.9C144.207 32.6333 143.547 32.2133 142.974 31.64C142.401 31.0533 141.941 30.3 141.594 29.38C141.261 28.4467 141.094 27.32 141.094 26C141.094 24.6267 141.281 23.48 141.654 22.56C142.041 21.6267 142.534 20.88 143.134 20.32C143.747 19.7467 144.427 19.34 145.174 19.1C145.921 18.8467 146.667 18.72 147.414 18.72C148.214 18.72 148.887 18.7733 149.434 18.88C149.994 18.9867 150.454 19.1133 150.814 19.26L150.274 21.58C149.967 21.4333 149.601 21.3267 149.174 21.26C148.761 21.1933 148.254 21.16 147.654 21.16C146.547 21.16 145.654 21.5533 144.974 22.34C144.307 23.1267 143.974 24.3467 143.974 26C143.974 26.72 144.054 27.38 144.214 27.98C144.374 28.5667 144.614 29.0733 144.934 29.5C145.267 29.9133 145.674 30.24 146.154 30.48C146.647 30.7067 147.214 30.82 147.854 30.82C148.454 30.82 148.961 30.76 149.374 30.64C149.787 30.52 150.147 30.3667 150.454 30.18L151.014 32.42ZM162.529 21.44H158.449V33H155.709V21.44H151.609V19H162.529V21.44ZM172.116 25.24L172.276 23.42H172.176L171.236 25.3L166.016 33H163.956V19H166.696V26.62L166.496 28.5H166.616L167.596 26.56L172.816 19H174.856V33H172.116V25.24ZM185.136 27.14H180.016V33H177.276V19H180.016V24.7H185.136V19H187.876V33H185.136V27.14ZM198.464 25.24L198.624 23.42H198.524L197.584 25.3L192.364 33H190.304V19H193.044V26.62L192.844 28.5H192.964L193.944 26.56L199.164 19H201.204V33H198.464V25.24ZM215.724 35.5H213.784L213.484 33H203.624V19H206.364V30.56H211.184V19H213.924V30.56H215.724V35.5ZM228.057 19H230.797V33H228.057V19ZM217.257 19H219.997V24.02C220.143 23.9933 220.377 23.96 220.697 23.92C221.017 23.88 221.33 23.86 221.637 23.86C222.303 23.86 222.937 23.9267 223.537 24.06C224.15 24.1933 224.683 24.4333 225.137 24.78C225.59 25.1133 225.95 25.5733 226.217 26.16C226.483 26.7333 226.617 27.46 226.617 28.34C226.617 29.9667 226.143 31.1867 225.197 32C224.25 32.8 222.843 33.2 220.977 33.2C220.79 33.2 220.55 33.1933 220.257 33.18C219.963 33.18 219.643 33.1667 219.297 33.14C218.963 33.1133 218.617 33.08 218.257 33.04C217.897 33 217.563 32.94 217.257 32.86V19ZM221.177 30.76C221.937 30.76 222.55 30.5867 223.017 30.24C223.497 29.88 223.737 29.2867 223.737 28.46C223.737 28.02 223.67 27.66 223.537 27.38C223.403 27.1 223.223 26.88 222.997 26.72C222.77 26.56 222.503 26.4533 222.197 26.4C221.89 26.3333 221.557 26.3 221.197 26.3C221.01 26.3 220.79 26.32 220.537 26.36C220.283 26.3867 220.103 26.42 219.997 26.46V30.64C220.143 30.68 220.317 30.7133 220.517 30.74C220.73 30.7533 220.95 30.76 221.177 30.76ZM247.692 22.26C247.692 22.6067 247.646 22.9533 247.552 23.3C247.472 23.6467 247.332 23.9667 247.132 24.26C246.932 24.54 246.672 24.7933 246.352 25.02C246.032 25.2333 245.646 25.3933 245.192 25.5V25.62C245.592 25.6867 245.972 25.8 246.332 25.96C246.692 26.12 247.006 26.34 247.272 26.62C247.539 26.9 247.746 27.24 247.892 27.64C248.052 28.04 248.132 28.5133 248.132 29.06C248.132 29.78 247.979 30.4067 247.672 30.94C247.366 31.46 246.952 31.8867 246.432 32.22C245.926 32.5533 245.346 32.8 244.692 32.96C244.039 33.12 243.366 33.2 242.672 33.2C242.446 33.2 242.152 33.2 241.792 33.2C241.446 33.2 241.066 33.1867 240.652 33.16C240.252 33.1467 239.839 33.12 239.412 33.08C238.999 33.04 238.619 32.98 238.272 32.9V19.1C238.526 19.06 238.812 19.02 239.132 18.98C239.466 18.94 239.819 18.9067 240.192 18.88C240.566 18.8533 240.946 18.8333 241.332 18.82C241.732 18.8067 242.126 18.8 242.512 18.8C243.166 18.8 243.799 18.8533 244.412 18.96C245.039 19.0533 245.592 19.2267 246.072 19.48C246.566 19.7333 246.959 20.0867 247.252 20.54C247.546 20.9933 247.692 21.5667 247.692 22.26ZM242.692 30.94C243.026 30.94 243.346 30.9 243.652 30.82C243.972 30.74 244.252 30.62 244.492 30.46C244.732 30.2867 244.926 30.0733 245.072 29.82C245.219 29.5667 245.292 29.2667 245.292 28.92C245.292 28.48 245.206 28.1333 245.032 27.88C244.859 27.6267 244.632 27.4333 244.352 27.3C244.072 27.1533 243.759 27.06 243.412 27.02C243.066 26.98 242.719 26.96 242.372 26.96H240.912V30.82C240.979 30.8467 241.086 30.8667 241.232 30.88C241.379 30.8933 241.532 30.9067 241.692 30.92C241.866 30.92 242.039 30.9267 242.212 30.94C242.399 30.94 242.559 30.94 242.692 30.94ZM241.792 24.88C241.979 24.88 242.192 24.8733 242.432 24.86C242.686 24.8467 242.892 24.8267 243.052 24.8C243.559 24.64 243.992 24.4 244.352 24.08C244.726 23.76 244.912 23.34 244.912 22.82C244.912 22.4733 244.846 22.1867 244.712 21.96C244.579 21.7333 244.399 21.5533 244.172 21.42C243.959 21.2867 243.712 21.1933 243.432 21.14C243.152 21.0867 242.859 21.06 242.552 21.06C242.206 21.06 241.886 21.0667 241.592 21.08C241.299 21.0933 241.072 21.1133 240.912 21.14V24.88H241.792ZM264.373 32.42C263.947 32.7267 263.4 32.9467 262.733 33.08C262.08 33.2133 261.407 33.28 260.713 33.28C259.873 33.28 259.073 33.1533 258.313 32.9C257.567 32.6333 256.907 32.2133 256.333 31.64C255.76 31.0533 255.3 30.3 254.953 29.38C254.62 28.4467 254.453 27.32 254.453 26C254.453 24.6267 254.64 23.48 255.013 22.56C255.4 21.6267 255.893 20.88 256.493 20.32C257.107 19.7467 257.787 19.34 258.533 19.1C259.28 18.8467 260.027 18.72 260.773 18.72C261.573 18.72 262.247 18.7733 262.793 18.88C263.353 18.9867 263.813 19.1133 264.173 19.26L263.633 21.58C263.327 21.4333 262.96 21.3267 262.533 21.26C262.12 21.1933 261.613 21.16 261.013 21.16C259.907 21.16 259.013 21.5533 258.333 22.34C257.667 23.1267 257.333 24.3467 257.333 26C257.333 26.72 257.413 27.38 257.573 27.98C257.733 28.5667 257.973 29.0733 258.293 29.5C258.627 29.9133 259.033 30.24 259.513 30.48C260.007 30.7067 260.573 30.82 261.213 30.82C261.813 30.82 262.32 30.76 262.733 30.64C263.147 30.52 263.507 30.3667 263.813 30.18L264.373 32.42ZM266.065 19H274.365V21.44H268.805V24.7H273.865V27.14H268.805V30.56H274.465V33H266.065V19ZM288.794 35.5H286.854L286.554 33H277.554L277.254 35.5H275.314V30.56H276.794C276.888 30.4133 277.041 30.0867 277.254 29.58C277.468 29.0733 277.681 28.36 277.894 27.44C278.108 26.5067 278.288 25.3467 278.434 23.96C278.581 22.56 278.648 20.9067 278.634 19H287.014V30.56H288.794V35.5ZM284.274 30.56V21.44H281.174C281.094 23.8133 280.901 25.76 280.594 27.28C280.301 28.7867 280.001 29.88 279.694 30.56H284.274ZM289.473 26C289.473 23.6667 289.986 21.8733 291.013 20.62C292.04 19.3533 293.506 18.72 295.413 18.72C296.413 18.72 297.286 18.8933 298.033 19.24C298.78 19.5867 299.4 20.08 299.893 20.72C300.386 21.36 300.753 22.1267 300.993 23.02C301.233 23.9133 301.353 24.9067 301.353 26C301.353 28.3333 300.833 30.1333 299.793 31.4C298.766 32.6533 297.306 33.28 295.413 33.28C294.4 33.28 293.52 33.1067 292.773 32.76C292.026 32.4133 291.406 31.92 290.913 31.28C290.433 30.64 290.073 29.8733 289.833 28.98C289.593 28.0867 289.473 27.0933 289.473 26ZM292.353 26C292.353 26.7067 292.413 27.36 292.533 27.96C292.653 28.5467 292.833 29.0533 293.073 29.48C293.326 29.9067 293.646 30.24 294.033 30.48C294.42 30.72 294.88 30.84 295.413 30.84C296.386 30.84 297.14 30.46 297.673 29.7C298.206 28.94 298.473 27.7067 298.473 26C298.473 25.32 298.413 24.6867 298.293 24.1C298.186 23.5133 298.013 23 297.773 22.56C297.533 22.12 297.22 21.78 296.833 21.54C296.446 21.2867 295.973 21.16 295.413 21.16C294.44 21.16 293.686 21.5533 293.153 22.34C292.62 23.1133 292.353 24.3333 292.353 26ZM311.171 27.14H306.051V33H303.311V19H306.051V24.7H311.171V19H313.911V33H311.171V27.14ZM316.339 19H324.639V21.44H319.079V24.7H324.139V27.14H319.079V30.56H324.739V33H316.339V19Z" fill="white"/>
</svg>

<svg xmlns="http://www.w3.org/2000/svg" width="376" height="52" fill="none"><rect width="376" height="52" fill="#756157" rx="4"/><path fill="#fff" d="M59.25 21.44h-4.9V33h-2.74V19H62v14h-2.74V21.44Zm4.7 4.56c0-2.33.5-4.13 1.54-5.38 1.02-1.27 2.49-1.9 4.4-1.9 1 0 1.87.17 2.62.52.74.35 1.36.84 1.86 1.48.49.64.86 1.4 1.1 2.3.24.9.36 1.89.36 2.98 0 2.33-.52 4.13-1.56 5.4a5.34 5.34 0 0 1-4.38 1.88c-1.02 0-1.9-.17-2.64-.52a4.94 4.94 0 0 1-1.86-1.48 6.68 6.68 0 0 1-1.08-2.3c-.24-.9-.36-1.89-.36-2.98Zm2.88 0c0 .7.06 1.36.18 1.96.12.59.3 1.1.54 1.52a2.56 2.56 0 0 0 2.34 1.36 2.6 2.6 0 0 0 2.26-1.14c.53-.76.8-2 .8-3.7 0-.68-.06-1.31-.18-1.9a5.1 5.1 0 0 0-.52-1.54 2.54 2.54 0 0 0-2.36-1.4c-.98 0-1.73.4-2.26 1.18-.54.77-.8 2-.8 3.66Zm19.11-.76.16-1.82H86l-.94 1.88-5.22 7.7h-2.06V19h2.74v7.62l-.2 1.88h.12l.98-1.94L86.64 19h2.04v14h-2.74v-7.76Zm14.64 7.18c-.42.3-.97.53-1.64.66-.65.13-1.32.2-2.02.2-.84 0-1.64-.13-2.4-.38a5.29 5.29 0 0 1-1.98-1.26 6.42 6.42 0 0 1-1.38-2.26 10.1 10.1 0 0 1-.5-3.38c0-1.37.2-2.52.56-3.44.4-.93.88-1.68 1.48-2.24.62-.57 1.3-.98 2.04-1.22.75-.25 1.5-.38 2.24-.38.8 0 1.48.05 2.02.16.56.1 1.02.23 1.38.38l-.54 2.32c-.3-.15-.67-.25-1.1-.32-.4-.07-.92-.1-1.52-.1-1.1 0-2 .4-2.68 1.18-.66.79-1 2-1 3.66 0 .72.08 1.38.24 1.98.16.59.4 1.1.72 1.52.34.41.74.74 1.22.98.5.23 1.06.34 1.7.34.6 0 1.11-.06 1.52-.18.42-.12.78-.27 1.08-.46l.56 2.24Zm5.16-5.4h-.72V33h-2.74V19h2.74v6.2l.64-.28 3.86-5.92h3.12l-4.08 5.88-1.08.76 1.12.78 4.66 6.58h-3.38l-4.14-5.98Zm21.8-5.58h-5.4V33h-2.73V19h8.14v2.44Zm.16 4.56c0-2.33.5-4.13 1.54-5.38 1.02-1.27 2.49-1.9 4.4-1.9 1 0 1.87.17 2.62.52.74.35 1.36.84 1.86 1.48.49.64.86 1.4 1.1 2.3.24.9.36 1.89.36 2.98 0 2.33-.52 4.13-1.56 5.4a5.34 5.34 0 0 1-4.38 1.88c-1.02 0-1.9-.17-2.64-.52a4.93 4.93 0 0 1-1.86-1.48 6.68 6.68 0 0 1-1.08-2.3c-.24-.9-.36-1.89-.36-2.98Zm2.88 0c0 .7.06 1.36.18 1.96.12.59.3 1.1.54 1.52a2.56 2.56 0 0 0 2.34 1.36 2.6 2.6 0 0 0 2.26-1.14c.53-.76.8-2 .8-3.7 0-.68-.06-1.31-.18-1.9-.11-.59-.28-1.1-.52-1.54a2.54 2.54 0 0 0-2.36-1.4c-.98 0-1.73.4-2.26 1.18-.54.77-.8 2-.8 3.66ZM151 32.42c-.42.3-.97.53-1.64.66-.65.13-1.32.2-2.02.2-.84 0-1.64-.13-2.4-.38a5.28 5.28 0 0 1-1.98-1.26 6.43 6.43 0 0 1-1.38-2.26 10.1 10.1 0 0 1-.5-3.38c0-1.37.2-2.52.56-3.44.4-.93.88-1.68 1.48-2.24.62-.57 1.3-.98 2.04-1.22.75-.25 1.5-.38 2.24-.38.8 0 1.48.05 2.02.16.56.1 1.02.23 1.38.38l-.54 2.32c-.3-.15-.67-.25-1.1-.32-.4-.07-.92-.1-1.52-.1-1.1 0-2 .4-2.68 1.18-.66.79-1 2-1 3.66 0 .72.08 1.38.24 1.98a3.64 3.64 0 0 0 1.94 2.5c.5.23 1.06.34 1.7.34.6 0 1.11-.06 1.52-.18.42-.12.78-.27 1.08-.46l.56 2.24Zm11.52-10.98h-4.08V33h-2.74V21.44h-4.1V19h10.92v2.44Zm9.59 3.8.16-1.82h-.1l-.94 1.88-5.22 7.7h-2.06V19h2.74v7.62l-.2 1.88h.12l.98-1.94 5.22-7.56h2.04v14h-2.74v-7.76Zm13.02 1.9h-5.12V33h-2.74V19h2.74v5.7h5.12V19h2.74v14h-2.74v-5.86Zm13.32-1.9.16-1.82h-.1l-.94 1.88-5.22 7.7h-2.06V19h2.74v7.62l-.2 1.88h.12l.98-1.94 5.22-7.56h2.04v14h-2.74v-7.76Zm17.26 10.26h-1.94l-.3-2.5h-9.86V19h2.74v11.56h4.82V19h2.74v11.56h1.8v4.94ZM228.06 19h2.74v14h-2.74V19Zm-10.8 0H220v5.02a14.07 14.07 0 0 1 1.64-.16c.66 0 1.3.07 1.9.2a4 4 0 0 1 1.6.72c.45.33.81.8 1.08 1.38.26.57.4 1.3.4 2.18 0 1.63-.48 2.85-1.42 3.66-.95.8-2.36 1.2-4.22 1.2-.19 0-.43 0-.72-.02a33.84 33.84 0 0 1-2-.14c-.36-.04-.7-.1-1-.18V19Zm3.92 11.76c.76 0 1.37-.17 1.84-.52.48-.36.72-.95.72-1.78 0-.44-.07-.8-.2-1.08-.14-.28-.32-.5-.54-.66-.23-.16-.5-.27-.8-.32a4.7 4.7 0 0 0-2.2.06v4.18a4 4 0 0 0 1.18.12Zm26.51-8.5a3.96 3.96 0 0 1-.56 2c-.2.28-.46.53-.78.76-.32.21-.7.37-1.16.48v.12c.4.07.78.18 1.14.34a2.92 2.92 0 0 1 1.56 1.68c.16.4.24.87.24 1.42a3.7 3.7 0 0 1-.46 1.88c-.3.52-.72.95-1.24 1.28-.5.33-1.08.58-1.74.74-.65.16-1.32.24-2.02.24h-.88c-.34 0-.72-.01-1.14-.04-.4-.01-.81-.04-1.24-.08-.41-.04-.8-.1-1.14-.18V19.1a27.47 27.47 0 0 1 3.06-.28l1.18-.02c.66 0 1.29.05 1.9.16.63.1 1.18.27 1.66.52.5.25.89.6 1.18 1.06.3.45.44 1.03.44 1.72Zm-5 8.68c.34 0 .66-.04.96-.12a2.04 2.04 0 0 0 1.42-1c.15-.25.22-.55.22-.9 0-.44-.08-.79-.26-1.04-.17-.25-.4-.45-.68-.58-.28-.15-.6-.24-.94-.28-.34-.04-.7-.06-1.04-.06h-1.46v3.86c.07.03.18.05.32.06a63.08 63.08 0 0 0 .98.06h.48Zm-.9-6.06a11.7 11.7 0 0 0 1.26-.08c.5-.16.94-.4 1.3-.72.38-.32.56-.74.56-1.26a1.5 1.5 0 0 0-.74-1.4 2.13 2.13 0 0 0-.74-.28 4.7 4.7 0 0 0-.88-.08 21.34 21.34 0 0 0-1.64.08v3.74h.88Zm22.58 7.54c-.42.3-.97.53-1.64.66-.65.13-1.32.2-2.02.2-.84 0-1.64-.13-2.4-.38a5.3 5.3 0 0 1-1.98-1.26 6.43 6.43 0 0 1-1.38-2.26 10.1 10.1 0 0 1-.5-3.38c0-1.37.19-2.52.56-3.44.39-.93.88-1.68 1.48-2.24.62-.57 1.3-.98 2.04-1.22.75-.25 1.5-.38 2.24-.38.8 0 1.48.05 2.02.16.56.1 1.02.23 1.38.38l-.54 2.32c-.3-.15-.67-.25-1.1-.32-.41-.07-.92-.1-1.52-.1-1.1 0-2 .4-2.68 1.18-.66.79-1 2-1 3.66 0 .72.08 1.38.24 1.98.16.59.4 1.1.72 1.52.34.41.74.74 1.22.98.5.23 1.06.34 1.7.34.6 0 1.11-.06 1.52-.18.42-.12.78-.27 1.08-.46l.56 2.24Zm1.7-13.42h8.3v2.44h-5.56v3.26h5.06v2.44h-5.06v3.42h5.65V33h-8.4V19Zm22.72 16.5h-1.94l-.3-2.5h-9l-.3 2.5h-1.94v-4.94h1.48c.1-.15.25-.47.46-.98.22-.5.43-1.22.64-2.14a30 30 0 0 0 .54-3.48c.15-1.4.22-3.05.2-4.96h8.38v11.56h1.78v4.94Zm-4.52-4.94v-9.12h-3.1a36.65 36.65 0 0 1-.58 5.84c-.29 1.5-.59 2.6-.9 3.28h4.58Zm5.2-4.56c0-2.33.52-4.13 1.54-5.38 1.03-1.27 2.5-1.9 4.4-1.9 1 0 1.88.17 2.62.52.75.35 1.37.84 1.86 1.48.5.64.86 1.4 1.1 2.3.24.9.36 1.89.36 2.98 0 2.33-.52 4.13-1.56 5.4a5.34 5.34 0 0 1-4.38 1.88c-1.01 0-1.89-.17-2.64-.52a4.93 4.93 0 0 1-1.86-1.48 6.68 6.68 0 0 1-1.08-2.3c-.24-.9-.36-1.89-.36-2.98Zm2.88 0c0 .7.06 1.36.18 1.96.12.59.3 1.1.54 1.52a2.57 2.57 0 0 0 2.34 1.36 2.6 2.6 0 0 0 2.26-1.14c.54-.76.8-2 .8-3.7 0-.68-.06-1.31-.18-1.9-.1-.59-.28-1.1-.52-1.54a2.54 2.54 0 0 0-2.36-1.4c-.97 0-1.72.4-2.26 1.18-.53.77-.8 2-.8 3.66Zm18.82 1.14h-5.12V33h-2.74V19h2.74v5.7h5.12V19h2.74v14h-2.74v-5.86Zm5.17-8.14h8.3v2.44h-5.56v3.26h5.06v2.44h-5.06v3.42h5.66V33h-8.4V19Z"/></svg>
